X: 24213
T: Lord McConnell Of Lough Erne And Lochend
R: reel
M: 4/4
K: Amajor
|:AAAc BABc|e2 ef eAce|f2 fa fece|f2 aA ecBc|
AAAc BABc|e2 ef eAce|f2 fa feaf|1 ecBa cAAa:|2 ecBa cAAe||
|:f3 e fefa|e2 ef eAce|f2 fa fefa|eAfA cBBe|
f3 e fefa|e2 ef eAce|f2 fa feaf|1 ecBa cAAe:|2 ecBa cAAa||
|:AcBc AAAc|BcAc eAce|f A3 fAaA|f A3 fecB|
AcBc AAAc|BcAc eAce|f2 fa feaf|1 ecBa cAAa:|2 ecBa cAAe||
|:affa fefa|eccf eAfe|ceef eAfe|ceae cBBe|
[1 affa fefa|eccf eAfe|ceef feaf|ecBa cAAe:|
[2 AcBc AAAc|BcAc eAce|f2 fa feaf|ecBa cA A2||

